!!!SOCIAL_FUNCTION:	corn dance songs
!!!PDT:	1957
!!!OTL: No_36_Song_Concerning_Laguna_Lake.krn
!!!LING_GROUP: Keresan
!!!LANG: Tone
!!!REG: Southwest
**kern
*staff1
=1-
*clefF4
*k[b-e-a-d-g-]
*M3/4
8.A-\L
16A-\Jk
8.A-\L
16A-\Jk
8.A-\L
16A-\Jk
=2!|:
8.e-\L
16e-\Jk
12e-\L
12d-\
12e-\J
8.d-\L
16d-\Jk
=3
*M2/4
8.e-\L
16e-\Jk
8.e-\L
16e-\Jk
=4
12e-\L
12d-\
12A-\J
8.A-\L
16A-\Jk
=5
8.d-\L
16A-\Jk
8.A-\L
16A-\Jk
=6
8.A-\L
16F\Jk
8.A-\L
16A-\Jk
=7
8.d-\L
16d-\Jk
12d-\L
12A-\
12A-\J
=8
8.A-\L
16A-\Jk
8.A-\L
16A-\Jk
=9
12A-\L
12A-\
12A-\J
8.A-\L
16A-\Jk
=10
*M5/8
12A-\L
12A-\
12A-\J
8.A-\L
16A-\K
8A-\J
=11
*M2/4
12d-\L
12A-\
12A-\J
8A-\
8r
=12
8.d-\L
16d-\Jk
12d-\L
12A-\
12A-\J
=13
8.A-\L
16A-\Jk
8.A-\L
16A-\Jk
=14
8.A-\L
16A-\Jk
12A-\L
12A-\
12A-\J
=15
*M3/4
12A-\L
12A-\
12A-\J
12A-\L
12A-\
12A-\J
8A-\
8r
=16
8.A-\L
16A-\Jk
8.A-\L
16d-\Jk
16A-\LL
16A-\JJ
8r
=17
*M2/4
8.A-\L
16A-\Jk
8.A-\L
16A-\Jk
=18
8.A-\L
16A-\Jk
8A-\
8r
=19
*M3/4
8.d-\L
16A-\Jk
8.A-\L
16A-\Jk
12B-\L
12A-\
12A-\J
=20:|!
*M2/4
8.d-\L
16A-\Jk
8.A-\L
16A-\Jk
=21
*M5/8
12B-\L
12A-\
12A-\J
8A-\
8r
8A-\
=22
*M2/4
4.d-;\
8f\
=23
*M3/4
12d-\L
12d-\
12A-\J
8.A-\L
16A-\Jk
4A-\
=24
*M2/4
8.B-\L
16A-\Jk
12A-\L
12A-\
12A-\J
=25
*M3/4
8.A-\L
16B-\Jk
8.A-\L
16F\Jk
8A-\
8r
=26
*M2/4
8.A-\L
16d-\Jk
8.d-\L
16e-\Jk
=27
12d-\L
12d-\
12A-\J
8.A-\L
16A-\Jk
=28
*M3/4
8.A-\L
16A-\Jk
12A-\L
12A-\
12A-\J
8.A-\L
16A-\Jk
=29
8.A-\L
16A-\Jk
8.A-\L
16F\Jk
8A-\
8r
=30
*M2/4
8.A-\L
16d-\Jk
8.d-\L
16e-\Jk
=31
12d-\L
12d-\
12A-\J
8.A-\L
16A-\Jk
=32
*M3/4
8.A-\L
16A-\Jk
12A-\L
12A-\
12A-\J
8.A-\L
16A-\Jk
=33
8.A-\L
16A-\Jk
8.A-\L
16F\Jk
8A-\
8r
=34
!!pagebreak:default
*M2/4
16e-\LK
8.e-\J
12e-\L
12d-\
12d-\J
=35
8.e-\L
16e-\Jk
8.e-\L
16e-\Jk
=36
12e-\L
12d-\
12A-\J
8.A-\L
16A-\Jk
=37
8.d-\L
16A-\Jk
12A-\L
12A-\
12A-\J
=38
8.A-\L
16F\Jk
8A-\
8r
=39
8.d-\L
16d-\Jk
12d-\L
12A-\
12A-\J
=40
8.A-\L
16A-\Jk
12A-\L
12A-\
12A-\J
=41
8.A-\L
16A-\Jk
12A-\L
12A-\
12A-\J
=42
12A-\L
12A-\
12A-\J
12A-\L
12A-\
12A-\J
=43
8.A-\L
16A-\Jk
12A-\L
12A-\
12A-\J
=44
4r
16d-\LL
16A-\J
8A-\J
=45
8.A-\L
16A-\Jk
8.A-\L
16A-\Jk
=46
8.A-\L
16A-\Jk
8A-\
8r
=47
8.d-\L
16A-\Jk
8.A-;\L
16A-\Jk
=48
4A-\
4A-\
==
*-
